optimized/24/outline/picture-radio.svg

<svg viewBox="0 0 24 24" xmlns="http://www.w3.org/2000/svg" fill="currentColor" data-slot="icon">
  <g clip-path="url(#clip0_2117_12132)">
    <path d="M8.5 6.25C7.25736 6.25 6.25 7.25736 6.25 8.5C6.25 9.74264 7.25736 10.75 8.5 10.75C9.74264 10.75 10.75 9.74264 10.75 8.5C10.75 7.25736 9.74264 6.25 8.5 6.25ZM7.75 8.5C7.75 8.08579 8.08579 7.75 8.5 7.75C8.91421 7.75 9.25 8.08579 9.25 8.5C9.25 8.91421 8.91421 9.25 8.5 9.25C8.08579 9.25 7.75 8.91421 7.75 8.5Z"/>
    <path d="M6 3C4.34315 3 3 4.34315 3 6V18C3 19.6569 4.34315 21 6 21H18C19.6569 21 21 19.6569 21 18V6C21 4.34315 19.6569 3 18 3H6ZM18 4.5C18.8284 4.5 19.5 5.17157 19.5 6V12.3701L15.8597 8.48704C15.7179 8.33581 15.5198 8.25 15.3125 8.25C15.1052 8.25 14.9071 8.33581 14.7653 8.48704L4.89547 19.0149C4.64992 18.7478 4.5 18.3914 4.5 18V6C4.5 5.17157 5.17157 4.5 6 4.5H18ZM18 19.5H6.4968L15.3125 10.0966L19.4528 14.513C19.468 14.5292 19.4838 14.5445 19.5 14.5591V18C19.5 18.8284 18.8284 19.5 18 19.5Z"/>
  </g>
  <defs>
    <clipPath id="clip0_2117_12132">
      <rect width="24" height="24"/>
    </clipPath>
  </defs>
</svg>

<svg xmlns="http://www.w3.org/2000/svg" viewBox="0 0 24 24" fill="currentColor" data-slot="icon">
  <g clip-path="url(#a)">
    <path d="M8.5 6.25a2.25 2.25 0 1 0 0 4.5 2.25 2.25 0 0 0 0-4.5ZM7.75 8.5a.75.75 0 1 1 1.5 0 .75.75 0 0 1-1.5 0Z"/>
    <path d="M6 3a3 3 0 0 0-3 3v12a3 3 0 0 0 3 3h12a3 3 0 0 0 3-3V6a3 3 0 0 0-3-3H6Zm12 1.5A1.5 1.5 0 0 1 19.5 6v6.37l-3.64-3.883a.75.75 0 0 0-1.095 0l-9.87 10.528A1.495 1.495 0 0 1 4.5 18V6A1.5 1.5 0 0 1 6 4.5h12Zm0 15H6.497l8.816-9.403 4.14 4.416a.787.787 0 0 0 .047.046V18a1.5 1.5 0 0 1-1.5 1.5Z"/>
  </g>
  <defs>
    <clipPath id="a">
      <rect width="24" height="24"/>
    </clipPath>
  </defs>
</svg>
